app/assets/images/fire-icon.svg

<svg width="19" height="25" viewBox="0 0 19 25" fill="none" xmlns="http://www.w3.org/2000/svg">
<path fill-rule="evenodd" clip-rule="evenodd" d="M11.4 0C11.4 0 12.16 3.125 12.16 5.625C12.16 8 10.5133 10 8.10667 10C5.7 10 3.8 8 3.8 5.625V5.25C1.39333 8.125 0 11.75 0 15.625C0 20.75 4.30667 25 9.5 25C14.6933 25 19 20.75 19 15.625C19 9.25 16.0867 3.625 11.4 0ZM9.49995 21.2501C7.34662 21.2501 5.69995 19.6251 5.69995 17.6251C5.69995 15.7501 6.96662 14.3751 8.99328 14.0001C11.1466 13.6251 13.3 12.6251 14.44 11.0001C14.9466 12.5001 15.2 14.1251 15.2 15.7501C15.2 18.7501 12.6666 21.2501 9.49995 21.2501Z" fill="#FCB92C"/>
</svg>

<svg width="19" height="25" fill="none" xmlns="http://www.w3.org/2000/svg"><path fill-rule="evenodd" clip-rule="evenodd" d="M11.4 0s.76 3.125.76 5.625C12.16 8 10.513 10 8.107 10 5.7 10 3.8 8 3.8 5.625V5.25C1.393 8.125 0 11.75 0 15.625 0 20.75 4.307 25 9.5 25s9.5-4.25 9.5-9.375c0-6.375-2.913-12-7.6-15.625zM9.5 21.25c-2.153 0-3.8-1.625-3.8-3.625 0-1.875 1.267-3.25 3.293-3.625 2.154-.375 4.307-1.375 5.447-3 .507 1.5.76 3.125.76 4.75 0 3-2.533 5.5-5.7 5.5z" fill="#FCB92C"/></svg>
